X: 1
T: the Iris
C: Tom Pixton 1999
R: air
Z: 2014 John Chambers <jc:trillian.mit.edu>
S: printed page of unknown origin, from Concord Slow Scottish Session collection
M: C
L: 1/8
K: Am
"A"[|] "Em"E>G |\
"Am"A4 "G7"d2 c>d | "C"e3 d "Am"c2 B>A | "C"G3 A "G"G2 FE | "Dm"D6 "Em"E>G | "Am"A4 "G7"d2 c>d |
"C"e2 a2 "Em"gf ed | "Am"e2 d>c "Dm"d2 eg | "F"a4- "G7"a2 b2 "B"|] "C"c'2 e2 "G"g2 fe | "Dm"d3 c "G"d2 eg |
"Dm"a3 g f2 "G7"ed | "C"c2 e4 G2 | "F"A3 B "C"c2 a2 | "Em"g2 fe "Dm"d2 cA | "C"G3 A "G"G3 FE | "Dm"D6 |]
